X:1
T:Title
%%score 1 { 2 | 3 }
L:1/8
Q:1/4=108
M:4/4
K:Bb
V:1 treble nm="Grand Piano, Soprano"
V:2 bass nm="Choir Pad, The New Name"
V:3 bass 
V:1
 [DF][EG][B,D][CE] [DF]2 [FB]2 | [FB]2 [FA]2 [FA]4 | [FA]2 [Fc]2 [EG]2 [EA]2 | %3
w: By~Jane~E.~Hall * * * * *|||
 [EG][DF][DF][B,D] [DF]4 | [DF][EG][B,D][CE] [DF]2 [FB]2 | [Gc]2 [EG]2 [EG]4 | %6
w: |||
 [EB]2 [EA]2 [Fd]2 [Ec]2 | [DB]4 z2 [FA]2 | [FA]4 F2 [Fc]2 | [Fc]4 [FA]4 | %10
w: ||||
 [=EG]2 [Bd]2 [Ac]2 [GB]2 | [FA]6 [Ac]2 | [Ac]4 [FA]2 [Ac]2 | [Bd]4 [GB]4 | %14
w: ||||
 [FA]2 [Ac]2 [GB]2 [=EG]2 | F6 z2 | [DF][EG][B,D][CE] [DF]2 [FB]2 | [FB]2 [FA]2 [FA]4 | %18
w: ||||
 [FA]2 [Fc]2 [EG]2 [EA]2 | [EG][DF][DF][B,D] [DF]4 | [DF][EG][B,D][CE] [DF]2 [FB]2 | %21
w: |||
 [Gc]2 [EG]2 [EG]4 | [EB]2 [EA]2 [Fd]2 [Ec]2 | [DB]8 |] %24
w: |||
V:2
 B,B,F,F, B,2[K:treble] D2 | C2 C2 C4 | C2 A,2 C2 C2 | B,B,B,F, B,4 | B,B,F,F, B,2[K:treble] D2 | %5
 E2 C2 C4 | B,2 C2[K:bass] B,2 A,2 | B,4 z2 C2 | C4 A,2 A,2 | A,4[K:treble] C4 | C2 C2 C2 C2 | %11
 C6 F2 | F4 C2 F2 | F4 D4 | C2 C2 C2[K:bass] B,2 | A,6 z2 | B,B,F,F, B,2[K:treble] D2 | C2 C2 C4 | %18
 C2 A,2 C2 C2 | B,B,B,F, B,4 | B,B,F,F, B,2[K:treble] D2 | E2 C2 C4 | B,2 C2 B,2 A,2 | B,8 |] %24
V:3
 B,,B,,B,,B,, B,,2 B,,2 | F,2 F,2 F,4 | F,2 F,2 F,2 F,2 | B,,B,,B,,B,, B,,4 | %4
 B,,B,,B,,B,, B,,2 B,,2 | E,2 E,2 E,4 | F,2 F,2 F,2 F,2 | B,,4 z2 F,2 | F,4 F,2 F,2 | F,4 F,4 | %10
 C,2 C,2 C,2 C,2 | F,6 F,2 | F,4 F,2 F,2 | B,,4 B,,4 | C,2 C,2 C,2 C,2 | F,6 z2 | %16
 B,,B,,B,,B,, B,,2 B,,2 | F,2 F,2 F,4 | F,2 F,2 F,2 F,2 | B,,B,,B,,B,, B,,4 | %20
 B,,B,,B,,B,, B,,2 B,,2 | E,2 E,2 E,4 | F,2 F,2 F,2 F,2 | B,,8 |] %24

